icons/mesh.svg

<svg width="16" height="16" viewBox="0 0 16 16" fill="none" xmlns="http://www.w3.org/2000/svg">
<path fill-rule="evenodd" clip-rule="evenodd" d="M13 3H3V13H13V3ZM3 2C2.44772 2 2 2.53726 2 3.2V12.8C2 13.4627 2.44772 14 3 14H13C13.5523 14 14 13.4627 14 12.8V3.2C14 2.53726 13.5523 2 13 2H3Z" fill="#60BCD9"/>
<path fill-rule="evenodd" clip-rule="evenodd" d="M9 3C8.20857 3 7.60461 3.52648 7.49029 4.0981L7.48796 4.10976L7.48507 4.12131C7.38233 4.53226 7.11163 5.10807 6.61029 5.53187C6.08497 5.97596 5.33683 6.22462 4.37873 5.98509C3.72685 5.82213 3.43092 6.00317 3.27572 6.17992C3.08247 6.40002 3 6.74051 3 7.00002H2C2 6.59287 2.11753 5.98336 2.52428 5.52012C2.96908 5.01355 3.67315 4.77792 4.62127 5.01495C5.26317 5.17543 5.6817 5.00743 5.96471 4.76818C6.26781 4.51196 6.44643 4.14397 6.51244 3.88857C6.73741 2.80035 7.79636 2 9 2V3Z" fill="#60BCD9"/>
<path fill-rule="evenodd" clip-rule="evenodd" d="M12.0995 3.4266C12.0536 3.51462 12 3.67907 12 4C12 4.44311 11.8091 4.77571 11.5137 5.00292C11.2508 5.20512 10.9208 5.31148 10.6471 5.38636C10.5225 5.42047 10.4112 5.44796 10.3062 5.4739C10.1454 5.51362 9.99934 5.5497 9.84264 5.60033C9.60029 5.67862 9.44621 5.7609 9.35355 5.85355C9.25279 5.95432 9.18597 6.06627 9.06643 6.26655C9.0217 6.34151 8.96957 6.42884 8.90552 6.5326C8.68823 6.88455 8.3867 7.3204 7.85355 7.85355C7.62134 8.08577 7.38431 8.25633 7.12186 8.37028C6.85959 8.48416 6.59774 8.53023 6.3325 8.54562C6.07494 8.56057 5.79618 8.54701 5.50733 8.53241C5.49398 8.53174 5.48057 8.53106 5.46709 8.53037C5.18177 8.51591 4.86807 8.5 4.5 8.5C3.86296 8.5 3.51307 8.75423 3.30577 9.04215C3.08011 9.35557 3 9.74668 3 10H2C2 9.58666 2.11989 8.97777 2.49423 8.45785C2.88693 7.91243 3.53704 7.5 4.5 7.5C4.89402 7.5 5.23004 7.51705 5.51387 7.53146C5.52866 7.53221 5.54331 7.53295 5.55782 7.53369C5.85795 7.54886 6.08095 7.55854 6.27457 7.5473C6.46051 7.53651 6.59926 7.507 6.72359 7.45301C6.84776 7.3991 6.98338 7.30952 7.14645 7.14645C7.6133 6.6796 7.86853 6.30869 8.05462 6.00727C8.08914 5.95135 8.12397 5.89257 8.15969 5.83231C8.29796 5.599 8.44934 5.34355 8.64645 5.14645C8.90735 4.88555 9.24254 4.7433 9.53523 4.64875C9.71776 4.58978 9.93299 4.53604 10.1218 4.48888C10.2185 4.46475 10.3083 4.44233 10.3832 4.42183C10.6462 4.34986 10.8086 4.28367 10.904 4.21029C10.9668 4.16193 11 4.11591 11 4C11 3.57093 11.0714 3.23538 11.213 2.96403C11.357 2.68795 11.5502 2.52482 11.7 2.4125C11.7486 2.37603 11.7867 2.34823 11.8173 2.32592C11.8943 2.26967 11.9235 2.24834 11.9533 2.21109L11.9539 2.21033C11.9662 2.19497 12 2.15291 12 2H13C13 2.34449 12.9099 2.61613 12.7342 2.83579C12.6113 2.98939 12.4433 3.1096 12.3462 3.17899C12.3281 3.19198 12.3124 3.20319 12.3 3.2125C12.1998 3.28768 12.143 3.3433 12.0995 3.4266Z" fill="#60BCD9"/>
<path fill-rule="evenodd" clip-rule="evenodd" d="M12.5694 6.71465C12.5392 6.7564 12.5 6.83691 12.5 7.00003C12.5 7.5771 12.3554 8.10174 11.9786 8.47858C11.6017 8.85542 11.0771 9.00003 10.5 9.00003C10.0932 9.00003 9.83403 9.09811 9.62485 9.26546C9.3978 9.4471 9.18705 9.74396 8.94721 10.2236C8.79135 10.5354 8.58303 10.7945 8.30459 10.9838C8.02728 11.1724 7.71036 11.2714 7.36771 11.3095C6.70634 11.3829 5.87711 11.2347 4.87873 10.9851C4.23683 10.8246 3.8183 10.9926 3.53529 11.2319C3.22829 11.4914 3.049 11.8656 2.98507 12.1213L2.01493 11.8787C2.11767 11.4678 2.38837 10.892 2.88971 10.4682C3.41503 10.0241 4.16317 9.77542 5.12127 10.0149C6.12289 10.2653 6.79366 10.3671 7.25729 10.3156C7.47714 10.2911 7.62897 10.2339 7.74228 10.1569C7.85447 10.0806 7.95865 9.9647 8.05279 9.77642C8.31295 9.25609 8.6022 8.80295 9.00015 8.48459C9.41597 8.15194 9.90678 8.00003 10.5 8.00003C10.9229 8.00003 11.1483 7.89463 11.2714 7.77147C11.3946 7.64831 11.5 7.42295 11.5 7.00003C11.5 6.66314 11.5858 6.36866 11.7587 6.12916C11.9294 5.89279 12.1571 5.74867 12.3768 5.66079C12.7801 5.49946 13.2366 5.49982 13.4768 5.50001C13.4848 5.50002 13.4925 5.50003 13.5 5.50003V6.50003C13.233 6.50003 12.9565 6.50594 12.7482 6.58926C12.6554 6.62638 12.6018 6.66976 12.5694 6.71465Z" fill="#60BCD9"/>
<path fill-rule="evenodd" clip-rule="evenodd" d="M11.7463 10.6101C11.3639 10.7057 11.1216 10.8748 10.9472 11.2236C10.9421 11.2338 10.9314 11.2604 10.9148 11.3223C10.9035 11.3645 10.8969 11.3921 10.8892 11.4245C10.8817 11.4556 10.8732 11.4911 10.8585 11.5481C10.8126 11.7261 10.7393 11.9694 10.5766 12.2033C10.2221 12.7126 9.58105 13 8.5 13C7.10376 13 7.00716 13.5115 7.00049 13.5103C6.99997 13.5102 7 13.507 7 13.5H6C6 12.7382 6.80614 12 8.5 12C9.41895 12 9.66606 11.761 9.75574 11.6321C9.81502 11.5469 9.85282 11.4432 9.8903 11.298C9.89492 11.2801 9.90251 11.2492 9.91099 11.2147C9.924 11.1616 9.93914 11.1 9.94895 11.0634C9.97074 10.9821 10.002 10.878 10.0528 10.7764C10.3784 10.1252 10.8861 9.79434 11.5037 9.63994C12.064 9.49986 12.7414 9.49993 13.4517 9.5C13.4678 9.5 13.4839 9.50001 13.5 9.50001V10.5C12.7279 10.5 12.1733 10.5033 11.7463 10.6101Z" fill="#60BCD9"/>
</svg>

<svg xmlns="http://www.w3.org/2000/svg" width="16" height="16" fill="none"><path fill="#60BCD9" fill-rule="evenodd" d="M13 3H3v10h10V3ZM3 2c-.552 0-1 .537-1 1.2v9.6c0 .663.448 1.2 1 1.2h10c.552 0 1-.537 1-1.2V3.2c0-.663-.448-1.2-1-1.2H3Z" clip-rule="evenodd"/><path fill="#60BCD9" fill-rule="evenodd" d="M9 3c-.791 0-1.395.526-1.51 1.098l-.002.012-.003.011c-.103.411-.373.987-.875 1.41-.525.445-1.273.694-2.231.454-.652-.163-.948.018-1.103.195C3.082 6.4 3 6.74 3 7H2c0-.407.118-1.017.524-1.48.445-.506 1.15-.742 2.097-.505.642.16 1.06-.008 1.344-.247.303-.256.481-.624.547-.88C6.737 2.8 7.796 2 9 2v1Z" clip-rule="evenodd"/><path fill="#60BCD9" fill-rule="evenodd" d="M12.1 3.427c-.046.088-.1.252-.1.573 0 .443-.19.776-.486 1.003-.263.202-.593.308-.867.383-.124.034-.236.062-.34.088-.162.04-.308.076-.464.126-.243.079-.397.16-.49.254-.1.1-.167.212-.287.413-.044.075-.096.162-.16.266a6.949 6.949 0 0 1-1.052 1.32c-.233.233-.47.403-.732.517a2.27 2.27 0 0 1-.79.176 7.815 7.815 0 0 1-.865-.016c-.285-.014-.599-.03-.967-.03-.637 0-.987.254-1.194.542A1.736 1.736 0 0 0 3 10H2c0-.413.12-1.022.494-1.542C2.887 7.912 3.537 7.5 4.5 7.5c.394 0 .73.017 1.014.031l.044.003c.3.015.523.025.717.013.186-.01.324-.04.449-.094.124-.054.26-.143.422-.307.467-.466.723-.837.909-1.139l.105-.175c.138-.233.29-.488.486-.686.261-.26.597-.403.89-.497.182-.06.397-.113.586-.16l.261-.067c.263-.072.426-.138.521-.212.063-.048.096-.094.096-.21 0-.43.071-.765.213-1.036.144-.276.337-.44.487-.551l.117-.087c.077-.056.107-.078.136-.115.013-.016.047-.058.047-.211h1c0 .344-.09.616-.266.836-.123.153-.29.274-.388.343l-.046.034a.616.616 0 0 0-.2.214Z" clip-rule="evenodd"/><path fill="#60BCD9" fill-rule="evenodd" d="M12.57 6.715c-.03.041-.07.122-.07.285 0 .577-.145 1.102-.521 1.479-.377.376-.902.521-1.479.521-.407 0-.666.098-.875.265-.227.182-.438.479-.678.959-.156.311-.364.57-.642.76a2.035 2.035 0 0 1-.937.325c-.662.074-1.49-.074-2.49-.324-.641-.16-1.06.008-1.343.247-.307.26-.486.634-.55.89l-.97-.243c.103-.411.373-.987.875-1.41.525-.445 1.273-.694 2.231-.454 1.002.25 1.673.352 2.136.3.22-.024.372-.081.485-.158a.952.952 0 0 0 .31-.38c.261-.52.55-.974.948-1.292.416-.333.907-.485 1.5-.485.423 0 .648-.105.771-.229.124-.123.229-.348.229-.771 0-.337.086-.631.259-.87.17-.237.398-.381.618-.47.403-.16.86-.16 1.1-.16h.023v1c-.267 0-.543.006-.752.09a.386.386 0 0 0-.179.125ZM11.746 10.61c-.382.096-.624.265-.799.614a.593.593 0 0 0-.032.098l-.026.103-.03.123c-.046.178-.12.421-.282.655-.355.51-.996.797-2.077.797-1.396 0-1.493.511-1.5.51v-.01H6c0-.762.806-1.5 2.5-1.5.919 0 1.166-.239 1.256-.368.059-.085.097-.189.134-.334l.021-.083a8.84 8.84 0 0 1 .038-.152 1.52 1.52 0 0 1 .104-.287c.325-.65.833-.982 1.45-1.136.561-.14 1.238-.14 1.949-.14h.048v1c-.772 0-1.327.003-1.754.11Z" clip-rule="evenodd"/></svg>
